X:3035
T:Tyv, ja tyv
T:Danish version
C:anon.
O:Denmark
Z:Transcribed by Frank Nordberg - http://www.musicaviva.com
F:http://abc.musicaviva.com/tunes/denmark/tyv-ja-tyv.abc
M:2/4
L:1/8
K:G
"G"DGGG|"D"FGAB"G"|GG"D"FD|"D"EF"G"G2:|
"G"B2G2|"Am"ABc2|"D"A2F2|"G"GBd2|
"G"B2G2|"Am"ABc2|"D"A2F2|"G"G2 z2|]
W:
W:
W:  From Musica Viva - http://www.musicaviva.com
W:  the Internet center for free sheet music downloads.
